X:1
T:James Gibb editions
T:Changeons propos - Sermisy
T:#
%%score [ 1 2 3 ]
L:1/8
Q:1/4=180
M:none
K:C
V:1 treble nm="Soprano"
V:2 treble nm="Alto"
V:3 bass nm="Bass"
V:1
"^Clément Marot\n(1496-1544)" z16 |"^Changeons propos" z8 z4 A4 | A4 A4 G8- | %3
w: |Chan-|geons pro- pos,|
"^Claudin de Sermisy\n(1490-1562)" G4 G4 A6 G2 | F4 F4 E8 | z4 D4 A4 A4 | F4 G4 F4 D4 | %7
w: * c'est trop chan-|té d'a mours:|Ce sont cla-|mours, chan- tons de|
 E4 (F6 E2) (E4- | E4 D8 ^C4) | D4 F4 G4 (A4- | A4 G2 F2) E8 | D16 | z8 z4 A4 | A4 A4 G8- | %14
w: la ser\- * pet\-||te, de la ser\-|* * * pet-|te:|Tous|vi- gne- rons|
 G4 G4 A6 G2 | F4 F4 E8 | z4 D4 A4 A4 | F4 G4 F4 D4 | E4 (F6 E2) (E4- | E2 D2 D8 ^C4) | %20
w: * ont à el-|le re- cours,|C'est leur se-|cours pour tail- ler|la vi\- * gnet\-||
 D4 F4 G4 (A4- | A4 G2 F2 E8) | D4 A4 A4 A4 | F8 D4 A4 | B4 d8 d4 | (c12 B2 A2 | B4) (A6 G2 F4) | %27
w: te, la vi- gne\-||te. O ser- pil-|let- te, ô|la ser- pil-|lon\- * *|* net\- * *|
 E4 F4 G4 A4 | (_B4 A8 G4) | A4 A4 B4 c4 | d4 (B4 c6 _B2 | A4 G2 F2 G8) | F4 A4 G4 _B4 | A8 z8 | %34
w: te, La vi- gnol-|let\- * *|te est par toy|mi- se * *||sus, Dont les bons|vins,|
 A4 G4 _B4 (A4- | A4 G4 A4) (c4- | c2 B2) A8 G4- | G4 F4 (E2 D2 E2 F2 | G2 F2 E2 D2 E8) | %39
w: dont les bons vins|* * * tous|* * les ans|* sont ys\- * * *||
 D4 A4 G4 _B4 | A8 z8 | A4 G4 _B4 (A4- | A4 G4 A4) (c4- | c2 _B2)[Q:1/4=176] A8[Q:1/4=170] G4 | %44
w: sus, dont les bons|vins,|dont les bons vins|* * * tous|* * les ans|
[Q:1/4=165] (A6[Q:1/4=162] G[Q:1/4=161] F[Q:1/4=160] E2[Q:1/4=158] D2)[Q:1/4=155] E4 | %45
w: sont * * * * ys-|
[Q:1/4=154] D16 |] %46
w: sus.|
V:2
 z8 z4 D4 | D4 D4 C8- | C4 D4 E6 D2 | (C4 B,4 C4 D4 | A,4 (D8 ^C4) | D8 z8 | z8 z8 | z4 D4 A4 A4 | %8
w: Chan-|geons pro- pos,|* c'est trop chan-|té * * *|* d'a\- *|mours:||Ce sont cla-|
 F8 z4 G4 | F4 D4 E4 F4- | F2 E2) (D8 ^C4) | D8 z4 D4 | D4 D4 C8- | C4 D4 (E6 D2 | C4) B,4 (C4 D4 | %15
w: mours, chan-|tons de la ser\-|* * pet\- *|te: Tous|vi- gne- rons|* ont à *|* el- le *|
 A,4) (D8 ^C4) | D8 z8 | z8 z8 | z4 D4 A4 A4 | F8 z4 G4 | F4 D4 E4 (F4- | F2 E2) (D8 ^C4) | %22
w: * re\- *|cours,||C\-est leur se-|cours pour|tail- ler la vi\-|* * gnet\- *|
 D8 z4 A4 | A4 A4 F8 | D8 z4 A4 | A4 A4 F8 | E4 (F6 E2 D4) | C16 | z4 C4 D6 E2 | F8 E4 E4 | %30
w: te. O|ser- pil- let-|te, ô|la ser- pi-|lon- net\- * *|te,|La vi- gnol-|let- te est|
 F4 G4 (A4 G4- | G4) (F8 E4) | F8 z8 | z4 F4 E4 D4 | (C2 A,2 B,2 C2 D2 C2 B,2 A,2 | B,8 (C6 D2 | %36
w: par toy mi\- *|* se *|sus,|Dont les bons|vins * * * * * * *|* tous *|
 E4) F6 E2) (E4- | E2 D2) D8 (C4 | _B,2 A,2 D6 =B,2 ^C4) | D8 z8 | z4 F4 E4 D4 | %41
w: * les * ans|* * sont ys\-||sus,|dont les bons|
 (^C2 A,2 B,2 C2 D2 !courtesy!^C2 B,2 A,2 | B,8) (C6 D2 | E4) F6 E2 (E4- | E2 D2) D8 ^C4 | D16 |] %46
w: vins, * * * * * * *|* tous *|* les * ans|* * sont ys-|sus.|
V:3
 z4 G,4 G,4 G,4 | F,4 G,4 A,6 G,2 | F,4 F,4 E,8- | E,8 z8 | z4 D,4 A,4 A,4 | F,4 G,4 F,4 D,4- | %6
w: Chan- geons pro-|pos, c'est trop chan-|té d'a- mours:||Ce sont cla-|mours, chan- tons de|
 D,4 E,4 (F,4 G,2 F,2 | E,2 D,2) (D,8 C,4- | D,4 F,4 E,8) | D,8 z4 D,4 | F,4 G,4 A,8 | %11
w: * la ser\- * *|* * pet\- *||te, de|la ser- pet-|
 D,4 G,4 G,4 G,4 | F,4 G,4 A,6 G,2 | F,4 F,4 E,8- | E,8 z8 | z4 D,4 A,4 A,4 | F,4 G,4 F,4 D,4- | %17
w: te: Tous vi- gne-|rons ont à el-|le re- cours,||C'est leur se-|cours pour tail- ler|
 D,4 E,4 (F,4 G,2 F,2 | E,2 D,2) (D,8 C,4- | D,4 F,4 E,8) | D,8 z4 D,4 | (F,4 G,4) A,8 | D,16 | %23
w: * la vi\- * *|* * gnet\- *||te, la|vi\- * gnet-|te.|
 z4 D,4 D,4 D,4 | G,8 D,8 | z4 F,4 F,4 F,4 | G,4 F,4 (D,2 E,2 F,2 G,2) | A,8 z4 F,4 | %28
w: O ser- pil-|let- te,|ô la ser-|pil- lon- net\- * * *|te, La|
 G,4 A,4 _B,8 | A,4 F,4 G,4 A,4 | (D,4 G,4 F,4 C,4) | D,8 C,8 | z4 D,4 E,4 (G,4- | G,4 F,4) G,8 | %34
w: vi- gnol- let-|te est par toy|mi\- * * *|se sus|Dont les bons|* * vins,|
 z4 E,4 D,4 F,4 | E,8 (A,,6 B,,2 | C,4) D,8 E,4 | C,4 D,4 A,,4 A,4 | G,4 _B,4 A,8 | %39
w: dont les bons|vins tous *|* les ans|sont ys- sus, dont|les bons vins,|
 z4 D,4 E,4 (G,4- | G,4 F,4) G,8 | z4 E,4 D,4 F,4 | E,8 (A,,6 _B,,2 | C,4) D,8 E,4 | %44
w: dont les bons|* * vins|dont les bons|vins tous *|* les ans|
 (C,4 D,4) A,,8 | D,16 |] %46
w: sont * ys-|sus.|

